Adwaita++-Dark/status/symbolic/sensors-temperature-symbolic.svg

<svg height="16" width="16" xmlns="http://www.w3.org/2000/svg">
  <g fill="#e6ddff">
    <path d="m8 0c-1.662 0-3 1.338-3 3v4.0078c-1.257.9426-1.998 2.4212-2 3.9922 0 2.761 2.239 5 5 5s5-2.239 5-5c-.002-1.571-.743-3.0496-2-3.9922v-4.0078c0-1.662-1.338-3-3-3zm0 2c.554 0 1 .446 1 1v5.1758c1.197.4233 1.998 1.5544 2 2.8242 0 1.657-1.343 3-3 3s-3-1.343-3-3c.001-1.2705.802-2.4027 2-2.8262v-5.1738c0-.554.446-1 1-1z"/>
    <path d="m7 6v2.1738a3 3 0 0 0 -2 2.8262 3 3 0 0 0 3 3 3 3 0 0 0 3-3 3 3 0 0 0 -2-2.8242v-2.1758z" opacity=".3"/>
  </g>
</svg>

<svg xmlns="http://www.w3.org/2000/svg" width="16" height="16" version="1.1">
 <path style="fill:#E6DDFF" d="M 8,0 C 6.338,0 5,1.338 5,3 V 7.0078 C 3.743,7.9504 3.002,9.429 3,11 3,13.761 5.239,16 8,16 10.761,16 13,13.761 13,11 12.998,9.429 12.257,7.9504 11,7.0078 V 3 C 11,1.338 9.662,0 8,0 Z M 8,2 C 8.554,2 9,2.446 9,3 V 8.1758 C 10.197,8.5991 10.998,9.7302 11,11 11,12.657 9.657,14 8,14 6.343,14 5,12.657 5,11 5.001,9.7295 5.802,8.5973 7,8.1738 V 3 C 7,2.446 7.446,2 8,2 Z"/>
 <path style="opacity:0.3;fill:#E6DDFF" d="M 7,6 V 8.1738 A 3,3 0 0 0 5,11 3,3 0 0 0 8,14 3,3 0 0 0 11,11 3,3 0 0 0 9,8.1758 V 6 Z"/>
</svg>
